X:1
T:Title
%%score 1 2
L:1/8
Q:1/4=85
M:3/4
K:Eb
V:1 treble nm="Grand Piano, Soprano"
V:2 bass nm="Choir Pad, Beautiful Zion"
V:1
 (3[GB][GB][GB] [Ge]2 [GB]2 | [EG]>[Ac] [GB]2 .[EG]2 | (3[DF][DF][DF] [DB]2 [DF]2 | %3
w: By~T.~J.~Cook * * * *|||
 (3[D-F][DG][DF] .E4 | (3[GB][GB][GB] [Ge]2 [GB]2 | [EG]>[Ac] [GB]2 .[EG]2 | %6
w: |||
 (3[DF][DF][DF] [DB]2 .[DF]2 | [Fd]>[Ec] .[DB]4 | z2[Q:1/4=120] [DF]3 [DF]- | [DF][DF] [EG]4- | %10
w: ||||
 [EG][EG] [FA]4 | [GB][FA] .[EG]4 | z2 [DF]3 [DF]- | [DF][DF] [EG]4- | [EG][EG] [EG]4 | %15
w: |||||
 [GB][FA] .[EG]4 | z2 [ce]4 | [Bd][Ac] [GB]3 [EG]- | [EG]2 [DF]3 [Ac]- | [Ac][GB] [GB]3 [EG]- | %20
w: |||||
 [EG]2 [ce]4 | [Bd][Ac] [GB]3 [EG]- | [EG]2 [DF]2 [DF][Dc]- | [Dc][DB] E4 | [ce]4 [Bd][Ac] | %25
w: |||||
 [GB]3 [EG]3 | [DF]3 [Ac]2 [GB] | [GB]3 .[EG]3 | [ce]4 [Bd][Ac] | [GB]3 [EG]3 | %30
w: |||||
 [DF]2 [DF] [Dc]2 [DB] | E4 z2 |] %32
w: ||
V:2
 (3[E,B,][E,B,][E,B,] [E,B,]2 [E,B,]2 | [E,E]>[E,E] [E,E]2 .[E,B,]2 | %2
 (3[B,,B,][B,,B,][B,,B,] [B,,B,]2 [B,,B,]2 | (3:2:2[B,,B,]2 [B,,A,] .[E,G,]4 | %4
 (3[E,B,][E,B,][E,B,] [E,B,]2 [E,B,]2 | [E,E]>[E,E] [E,E]2 .[E,B,]2 | %6
 (3[F,B,][F,B,][F,B,] [F,B,]2 .[F,B,]2 | [F,=A,]>[F,A,] .[B,,B,]4 | z2 [B,,B,]3 [B,,B,]- | %9
 [B,,B,][B,,B,] [E,B,]4- | [E,B,][E,B,] [E,B,]4- | [E,B,][D,B,] .[E,B,]4 | z2 [B,,B,]3 [B,,B,]- | %13
 [B,,B,][B,,B,] [E,B,]4- | [E,B,][E,B,] [D,B,]4- | [D,B,][D,B,] .[E,B,]4 | z2 [E,E]4- | %17
 [E,E][E,E] [E,E]3 [E,B,]- | [E,B,]2 [B,,B,]4- | [B,,B,][B,,B,] [E,B,]3 [E,B,]- | [E,B,]C [E,E]4 | %21
 [E,E][E,E] [E,E]3 [E,B,]- | [E,B,]2 [B,,B,]2 [B,,B,][B,,A,]- | [B,,A,][B,,A,] [E,G,]4 | %24
 [E,E]4- [E,E][E,E] | [E,E]3 [E,B,]3 | [B,,B,]4- [B,,B,][B,,B,] | [E,B,]3 [E,B,]2 C | %28
 [E,E]4 [E,E][E,E] | [E,E]3 [E,B,]3 | [B,,B,]2 [B,,B,] [B,,A,]2 [B,,A,] | [E,G,]4 z2 |] %32

